dist/assets/img/map.svg

<svg width="147" height="93" viewBox="0 0 147 93" fill="none" xmlns="http://www.w3.org/2000/svg">
<rect x="1" y="1" width="145" height="91" rx="12" fill="white" stroke="black" stroke-width="2"/>
<g clip-path="url(#clip0_10_4)">
<path d="M71.9217 10H75.0995C75.2558 10.0521 75.4153 10.0939 75.5771 10.1252C82.0423 10.9615 86.8898 14.2411 90.0213 19.9312C91.9472 23.3995 92.7484 27.1666 91.978 31.1418C91.7508 32.3075 91.3482 33.4386 91.0151 34.6101C91.1248 34.6545 91.2077 34.693 91.3001 34.7219C96.0173 36.2968 100.732 37.8717 105.446 39.4466C106.782 39.8937 106.987 40.1962 106.987 41.5797C106.987 55.0357 106.991 68.4912 107 81.9459C107 82.8419 106.78 83.5375 105.993 84H105.126C105.001 83.9339 104.872 83.8747 104.741 83.8227C98.112 81.6068 91.4799 79.3973 84.8445 77.1943C84.4201 77.0652 83.967 77.0652 83.5426 77.1943C77.7649 79.0877 72 81.0018 66.248 82.9364C65.2851 83.2601 64.3356 83.6435 63.3823 84H62.2268C61.9659 83.8539 61.6957 83.7252 61.4179 83.6146C54.7415 81.382 48.065 79.1545 41.3886 76.9322C40.2677 76.5584 40.0019 76.1846 40 74.9706C40 61.4375 40 47.9063 40 34.377C40 32.7353 40.8089 32.1476 42.3573 32.664L55.3648 36.9764C55.9926 37.1845 56.6224 37.3849 57.2907 37.6007C57.2879 37.5267 57.2782 37.4532 57.2618 37.381C57.1251 37.0727 56.9787 36.7702 56.8458 36.4619C55.5362 33.4136 54.5078 30.344 54.8352 26.9103C55.515 19.7943 60.6302 13.2295 67.4517 11.0309C68.8942 10.5781 70.4349 10.3391 71.9217 10ZM42.937 35.905C42.9235 36.0842 42.9062 36.2037 42.9062 36.3212C42.9062 48.819 42.901 61.3167 42.8908 73.8145C42.8908 74.3213 43.1257 74.4581 43.5225 74.5853C49.2668 76.4954 55.0098 78.4108 60.7515 80.3312C60.9441 80.3948 61.1367 80.4256 61.3774 80.4815V79.5489C61.3774 69.2671 61.3158 58.9833 61.4217 48.7034C61.4468 46.21 61.1463 43.9478 59.5864 41.9689C59.309 41.6182 58.9431 41.2425 58.5406 41.1057C53.5814 39.4177 48.6088 37.7741 43.6399 36.1189C43.4165 36.0418 43.1893 35.9802 42.937 35.905ZM104.084 80.4988C104.098 80.3235 104.113 80.206 104.113 80.0865C104.113 67.59 104.118 55.0935 104.128 42.5971C104.128 42.0864 103.888 41.9439 103.493 41.8128C100.758 40.9091 98.0253 39.9919 95.2906 39.0824C93.4931 38.4851 91.7013 37.8916 89.9154 37.302C89.8504 37.36 89.7917 37.4246 89.7401 37.4947C88.4324 39.8994 87.119 42.3003 85.8306 44.7147C85.701 44.9938 85.639 45.2994 85.6495 45.6069C85.6418 54.9728 85.6354 64.3394 85.6303 73.7066C85.6303 74.2307 85.792 74.4446 86.2812 74.6064C91.9857 76.4871 97.6857 78.3812 103.381 80.2888C103.605 80.362 103.832 80.4237 104.084 80.4988ZM73.4759 58.2453C74.9223 56.0853 76.282 54.0774 77.6185 52.0561C81.3413 46.4239 85.0968 40.8109 87.8258 34.6005C88.9678 32.0069 89.6746 29.3555 89.2144 26.4729C87.8412 17.8983 80.284 12.108 71.6714 13.004C61.9244 14.0195 54.4827 24.7792 59.0722 34.4714C60.7982 38.1478 62.7517 41.7131 64.9211 45.1463C67.7021 49.5011 70.5697 53.8 73.4759 58.2453ZM82.7433 49.9192L82.6105 49.873C82.4756 50.0657 82.335 50.2584 82.206 50.451C79.7665 54.1391 77.3213 57.8265 74.8703 61.5133C74.0845 62.6964 72.9328 62.6964 72.1528 61.5133C69.6941 57.806 67.2354 54.0993 64.7767 50.3932C64.6534 50.2006 64.5109 50.0368 64.3029 49.7612V80.5027C64.5667 80.4237 64.7959 80.362 65.0193 80.2869C70.6275 78.4197 76.2319 76.5372 81.8497 74.6989C82.5238 74.4793 82.7684 74.2114 82.7645 73.4657C82.7299 65.9759 82.7433 58.4861 82.7433 50.9964V49.9192Z" fill="black"/>
<path d="M73.497 38.7856C71.4682 38.7825 69.486 38.1772 67.8012 37.0464C66.1164 35.9155 64.8049 34.3099 64.0327 32.4329C63.2604 30.5559 63.0622 28.4918 63.4631 26.502C63.864 24.5122 64.846 22.6861 66.2848 21.255C67.7235 19.8239 69.5543 18.8521 71.5454 18.4626C73.5365 18.0731 75.5983 18.2834 77.4699 19.067C79.3414 19.8506 80.9385 21.1721 82.0589 22.8643C83.1794 24.5565 83.7727 26.5433 83.764 28.5731C83.7538 31.2888 82.6669 33.8895 80.742 35.8042C78.8171 37.7189 76.2114 38.7912 73.497 38.7856ZM73.4739 35.8952C74.9313 35.9021 76.358 35.476 77.5732 34.6711C78.7884 33.8661 79.7375 32.7183 80.3003 31.3732C80.863 30.0281 81.0141 28.5462 80.7344 27.1151C80.4547 25.6841 79.7568 24.3682 78.7291 23.3343C77.7014 22.3004 76.3901 21.5949 74.9613 21.3072C73.5325 21.0195 72.0506 21.1625 70.7031 21.7181C69.3556 22.2738 68.2032 23.217 67.392 24.4284C66.5807 25.6398 66.147 27.0648 66.1459 28.523C66.1443 30.4712 66.9148 32.3405 68.2884 33.7213C69.662 35.1021 71.5268 35.8818 73.4739 35.8895V35.8952Z" fill="black"/>
</g>
<defs>
<clipPath id="clip0_10_4">
<rect width="67" height="74" fill="white" transform="translate(40 10)"/>
</clipPath>
</defs>
</svg>

<svg width="147" height="93" fill="none" xmlns="http://www.w3.org/2000/svg"><rect x="1" y="1" width="145" height="91" rx="12" fill="#fff" stroke="#000" stroke-width="2"/><g clip-path="url(#clip0_10_4)" fill="#000"><path d="M71.922 10H75.1c.156.052.315.094.477.125 6.465.836 11.313 4.116 14.444 9.806 1.926 3.468 2.727 7.236 1.957 11.21-.227 1.166-.63 2.298-.963 3.47.11.044.193.082.285.11 4.717 1.576 9.432 3.15 14.146 4.726 1.336.447 1.541.75 1.541 2.133 0 13.456.004 26.911.013 40.366 0 .896-.22 1.591-1.007 2.054h-.867a3.913 3.913 0 00-.385-.177c-6.629-2.216-13.261-4.426-19.897-6.629a2.237 2.237 0 00-1.301 0 2345.204 2345.204 0 00-17.295 5.742c-.963.324-1.912.707-2.866 1.064h-1.155a6.814 6.814 0 00-.81-.385c-6.675-2.233-13.352-4.46-20.028-6.683-1.121-.374-1.387-.747-1.389-1.961V34.377c0-1.642.809-2.23 2.357-1.713l13.008 4.312c.628.209 1.257.409 1.926.625a1.196 1.196 0 00-.03-.22c-.136-.308-.282-.61-.415-.92-1.31-3.047-2.338-6.117-2.01-9.55.679-7.117 5.794-13.682 12.616-15.88 1.442-.453 2.983-.692 4.47-1.031zM42.937 35.905c-.014.18-.03.299-.03.416 0 12.498-.006 24.996-.016 37.493 0 .507.235.644.632.771 5.744 1.91 11.487 3.826 17.228 5.746.193.064.386.095.626.15v-.932c0-10.282-.061-20.566.045-30.846.025-2.493-.276-4.755-1.836-6.734-.277-.35-.643-.727-1.045-.863-4.96-1.688-9.932-3.332-14.901-4.987-.224-.077-.45-.139-.703-.214zm61.147 44.594c.014-.175.029-.293.029-.412 0-12.497.005-24.994.015-37.49 0-.51-.24-.653-.635-.784-2.735-.904-5.468-1.821-8.202-2.73-1.798-.598-3.59-1.191-5.376-1.781a1.256 1.256 0 00-.175.193c-1.308 2.404-2.621 4.805-3.91 7.22a1.96 1.96 0 00-.18.892c-.008 9.366-.015 18.732-.02 28.1 0 .524.162.738.651.9a3641.13 3641.13 0 0117.1 5.682c.224.073.451.135.703.21zM73.476 58.245c1.446-2.16 2.806-4.168 4.142-6.189 3.723-5.632 7.479-11.245 10.208-17.456 1.142-2.593 1.849-5.245 1.388-8.127-1.373-8.575-8.93-14.365-17.543-13.469-9.747 1.016-17.188 11.775-12.599 21.467a97.754 97.754 0 005.85 10.675c2.78 4.355 5.648 8.654 8.554 13.1zm9.267-8.326l-.132-.046c-.135.193-.276.385-.405.578-2.44 3.688-4.885 7.376-7.336 11.062-.785 1.183-1.937 1.183-2.717 0l-7.376-11.12c-.124-.192-.266-.356-.474-.632v30.742c.264-.08.493-.141.716-.216 5.608-1.867 11.213-3.75 16.83-5.588.675-.22.92-.488.915-1.233-.034-7.49-.02-14.98-.02-22.47V49.92z"/><path d="M73.497 38.786a10.248 10.248 0 01-9.464-6.353 10.261 10.261 0 012.252-11.178 10.25 10.25 0 0117.479 7.318 10.254 10.254 0 01-3.022 7.231 10.243 10.243 0 01-7.245 2.982zm-.023-2.89a7.36 7.36 0 006.826-4.523 7.37 7.37 0 00-1.57-8.039 7.361 7.361 0 00-12.584 5.189 7.362 7.362 0 007.328 7.366v.006z"/></g><defs><clipPath id="clip0_10_4"><path fill="#fff" transform="translate(40 10)" d="M0 0h67v74H0z"/></clipPath></defs></svg>
